assets/icons/dialpad.svg

<?xml version="1.0" encoding="UTF-8" standalone="no"?>
<svg viewBox="0 0 24 24" height="24" width="24" version="1.1" id="svg6" sodipodi:docname="dialpad.svg" inkscape:version="1.1 (ce6663b3b7, 2021-05-25)"
   xmlns:inkscape="http://www.inkscape.org/namespaces/inkscape"
   xmlns:sodipodi="http://sodipodi.sourceforge.net/DTD/sodipodi-0.dtd"
   xmlns="http://www.w3.org/2000/svg"
   xmlns:svg="http://www.w3.org/2000/svg">
   <defs id="defs10" />
   <sodipodi:namedview id="namedview8" pagecolor="#ffffff" bordercolor="#666666" borderopacity="1.0" inkscape:pageshadow="2" inkscape:pageopacity="0.0" inkscape:pagecheckerboard="0" showgrid="true" inkscape:snap-page="true" inkscape:zoom="28" inkscape:cx="12.839286" inkscape:cy="10.321429" inkscape:window-width="1920" inkscape:window-height="1043" inkscape:window-x="1920" inkscape:window-y="0" inkscape:window-maximized="1" inkscape:current-layer="svg6">
      <inkscape:grid type="xygrid" id="grid822" />
   </sodipodi:namedview>
   <path id="rect1046" style="color:#000000;fill:#808080;fill-rule:evenodd;stroke-linecap:round;-inkscape-stroke:none;fill-opacity:1" d="M 3.25 2 C 2.5747979 2 2 2.5747979 2 3.25 L 2 5.75 C 2 6.4252021 2.5747979 7 3.25 7 L 5.75 7 C 6.4252021 7 7 6.4252021 7 5.75 L 7 3.25 C 7 2.5747979 6.4252021 2 5.75 2 L 3.25 2 z M 3 3 L 6 3 L 6 6 L 3 6 L 3 3 z " />
   <path id="path1423" style="color:#000000;fill:#808080;fill-rule:evenodd;stroke-linecap:round;-inkscape-stroke:none;fill-opacity:1" d="m 10.25,2 c -0.6752021,0 -1.25,0.5747979 -1.25,1.25 v 2.5 c 0,0.6752021 0.5747979,1.25 1.25,1.25 h 2.5 c 0.675202,0 1.25,-0.5747979 1.25,-1.25 v -2.5 c 0,-0.6752021 -0.574798,-1.25 -1.25,-1.25 z m -0.25,1 h 3 v 3 h -3 z" />
   <path id="path1425" style="color:#000000;fill:#808080;fill-rule:evenodd;stroke-linecap:round;-inkscape-stroke:none;fill-opacity:1" d="m 17.25,2 c -0.675202,0 -1.25,0.5747979 -1.25,1.25 v 2.5 c 0,0.6752021 0.574798,1.25 1.25,1.25 h 2.5 c 0.675202,0 1.25,-0.5747979 1.25,-1.25 v -2.5 c 0,-0.6752021 -0.574798,-1.25 -1.25,-1.25 z m -0.25,1 h 3 v 3 h -3 z" />
   <path id="path1427" style="color:#000000;fill:#808080;fill-rule:evenodd;stroke-linecap:round;-inkscape-stroke:none;fill-opacity:1" d="m 3.25,9 c -0.6752021,0 -1.25,0.5747979 -1.25,1.25 v 2.5 c 0,0.675202 0.5747979,1.25 1.25,1.25 h 2.5 c 0.6752021,0 1.25,-0.574798 1.25,-1.25 v -2.5 c 0,-0.6752021 -0.5747979,-1.25 -1.25,-1.25 z m -0.25,1 h 3 v 3 h -3 z" />
   <path id="path1429" style="color:#000000;fill:#808080;fill-rule:evenodd;stroke-linecap:round;-inkscape-stroke:none;fill-opacity:1" d="m 10.25,9 c -0.6752021,0 -1.25,0.5747979 -1.25,1.25 v 2.5 c 0,0.675202 0.5747979,1.25 1.25,1.25 h 2.5 c 0.675202,0 1.25,-0.574798 1.25,-1.25 v -2.5 c 0,-0.6752021 -0.574798,-1.25 -1.25,-1.25 z m -0.25,1 h 3 v 3 h -3 z" />
   <path id="path1431" style="color:#000000;fill:#808080;fill-rule:evenodd;stroke-linecap:round;-inkscape-stroke:none;fill-opacity:1" d="m 17.25,9 c -0.675202,0 -1.25,0.5747979 -1.25,1.25 v 2.5 c 0,0.675202 0.574798,1.25 1.25,1.25 h 2.5 c 0.675202,0 1.25,-0.574798 1.25,-1.25 v -2.5 c 0,-0.6752021 -0.574798,-1.25 -1.25,-1.25 z m -0.25,1 h 3 v 3 h -3 z" />
   <path id="path1433" style="color:#000000;fill:#808080;fill-rule:evenodd;stroke-linecap:round;-inkscape-stroke:none;fill-opacity:1" d="m 3.25,16 c -0.6752021,0 -1.25,0.574798 -1.25,1.25 v 2.5 c 0,0.675202 0.5747979,1.25 1.25,1.25 h 2.5 c 0.6752021,0 1.25,-0.574798 1.25,-1.25 v -2.5 c 0,-0.675202 -0.5747979,-1.25 -1.25,-1.25 z m -0.25,1 h 3 v 3 h -3 z" />
   <path id="path1435" style="color:#000000;fill:#808080;fill-rule:evenodd;stroke-linecap:round;-inkscape-stroke:none;fill-opacity:1" d="m 10.25,16 c -0.6752021,0 -1.25,0.574798 -1.25,1.25 v 2.5 c 0,0.675202 0.5747979,1.25 1.25,1.25 h 2.5 c 0.675202,0 1.25,-0.574798 1.25,-1.25 v -2.5 c 0,-0.675202 -0.574798,-1.25 -1.25,-1.25 z m -0.25,1 h 3 v 3 h -3 z" />
   <path id="path1437" style="color:#000000;fill:#808080;fill-rule:evenodd;stroke-linecap:round;-inkscape-stroke:none;fill-opacity:1" d="m 17.25,16 c -0.675202,0 -1.25,0.574798 -1.25,1.25 v 2.5 c 0,0.675202 0.574798,1.25 1.25,1.25 h 2.5 c 0.675202,0 1.25,-0.574798 1.25,-1.25 v -2.5 c 0,-0.675202 -0.574798,-1.25 -1.25,-1.25 z m -0.25,1 h 3 v 3 h -3 z" />
</svg>

<svg height="24" width="24" xmlns="http://www.w3.org/2000/svg"><path style="color:#000;fill:gray;stroke-linecap:round;-inkscape-stroke:none;fill-opacity:1" d="M3.25 2A1.27 1.27 0 0 0 2 3.25v2.5C2 6.425 2.575 7 3.25 7h2.5A1.27 1.27 0 0 0 7 5.75v-2.5A1.27 1.27 0 0 0 5.75 2h-2.5zM3 3h3v3H3V3zm7.25-1A1.27 1.27 0 0 0 9 3.25v2.5C9 6.425 9.575 7 10.25 7h2.5A1.27 1.27 0 0 0 14 5.75v-2.5A1.27 1.27 0 0 0 12.75 2zM10 3h3v3h-3zm7.25-1A1.27 1.27 0 0 0 16 3.25v2.5c0 .675.575 1.25 1.25 1.25h2.5A1.27 1.27 0 0 0 21 5.75v-2.5A1.27 1.27 0 0 0 19.75 2zM17 3h3v3h-3zM3.25 9A1.27 1.27 0 0 0 2 10.25v2.5c0 .675.575 1.25 1.25 1.25h2.5A1.27 1.27 0 0 0 7 12.75v-2.5A1.27 1.27 0 0 0 5.75 9zM3 10h3v3H3zm7.25-1A1.27 1.27 0 0 0 9 10.25v2.5c0 .675.575 1.25 1.25 1.25h2.5A1.27 1.27 0 0 0 14 12.75v-2.5A1.27 1.27 0 0 0 12.75 9zM10 10h3v3h-3zm7.25-1A1.27 1.27 0 0 0 16 10.25v2.5c0 .675.575 1.25 1.25 1.25h2.5A1.27 1.27 0 0 0 21 12.75v-2.5A1.27 1.27 0 0 0 19.75 9zM17 10h3v3h-3zM3.25 16A1.27 1.27 0 0 0 2 17.25v2.5c0 .675.575 1.25 1.25 1.25h2.5A1.27 1.27 0 0 0 7 19.75v-2.5A1.27 1.27 0 0 0 5.75 16zM3 17h3v3H3zm7.25-1A1.27 1.27 0 0 0 9 17.25v2.5c0 .675.575 1.25 1.25 1.25h2.5A1.27 1.27 0 0 0 14 19.75v-2.5A1.27 1.27 0 0 0 12.75 16zM10 17h3v3h-3zm7.25-1A1.27 1.27 0 0 0 16 17.25v2.5c0 .675.575 1.25 1.25 1.25h2.5A1.27 1.27 0 0 0 21 19.75v-2.5A1.27 1.27 0 0 0 19.75 16zM17 17h3v3h-3z"/></svg>
